!!!COM: Bach, Johann Sebastian
!!!CDT: 1685///-1750///
!!!OTL: Sarabande from Cello Suite No. 5 in C Minor, BWV 1011
!!!OPR: Cello Suite No. 5 in C Minor, BWV 1011
!!!OMD: Sarabande
!!!OMV: 4
!!!ODT: 1724///
!!!SCT: BWV 1011
!!!SCA: Thematisch-systematisches Verzeichnis der musikalischen Werke Johann Sebastian Bach: Bach-Werke-Verzeichnis (Schmieder)
!!!CNT: German
!!!ENC: Craig Stuart Sapp
!!!YEC: Copyright 2001 by Craig Stuart Sapp
!!!YEN: United States of America
**kern
*Icello
*ICstr
*IGsolo
*clefF4
*k[b-e-a-]
*c:
*M3/4
*MM54
*>[A,A,B,B]
*>A
{(8Gu
8E-y)
8BBn
8C
4AA-y
=2
(8c
8A-y)
8En
8F
4BBn
=3
(8d
8A-y)
8En
8F
8GG
8G
=4
(8F
8E-y)
8BBn
8C
4CC}
=5
{8Cv
8E-y
(8A-y
8G)
(8d-
8c)
=6
8Dn
8F
(8B-y
8A-y)
(8c
8B-y)
=7
(8A-y
8G)
(8D
8E-y)
8BB-y
8D
=8
2.EE-yv}
=9:|!|
*>B
{(8B-yu
8G)
8D
8E-y
4DD-
=10
(8B-y
8G)
8En
8F
4GG
=11
(8d-
8B-y)
(8En
8F)
8CC~
8c~
=12
(8B-y
8A-y)
8En
8F
4FF}
=13
{8EE-~
8C~
(8F
8E-)
(8B-
8An)
=14
8DD~
8D~
(8G
8F)
(8c
8Bn)
=15
8c~
(8A-y
8F#)
8G~
(8BBn
8C)
=16
8GG~
8D~
(8G
8F#)
(8c
8Bn)
=17
(8e-y
8c)
8F#
8G
8AAn
8e-yu
=18
(8d
8A-)
8En
8F
8BBn
8Gv
=19
(8F
8E-)
(8BBn
8C)
8GG~
8Bn
=20
(8CC
8GG)
8F
8E-
4c~}
=:|!
*-
